X: 423 % 122
T: Dive For The Oyster Duck For The Clam
S: Viola Ruth "Pioneer Western Folk Tunes" 1948 p.42 #3
R: reel
Z: 2019 John Chambers <jc:trillian.mit.edu>
M: 2/4
L: 1/16
K: D
V: 1 name="122"
(3(ABc) |\
d2FG A2(3(def) | gfed fdBc | d2(FG) A2(AB) | AFDF E2(3(ABc) | d2(FG) A2(3(def) |
gfed fdBc | d2(FG) A2(de) | faec d2 :| (3(efg) | afbf afdf | gfed cd(3(efg) |
afba abag | f3d e2(3(efg) | afbf afdf | gfed fdBc | d2(FG) A2(de) | faec d2 :|
